X: 23125
T: Lauren's A Cracker
R: reel
M: 4/4
K: Dminor
|:DFF/F/D FAA/A/A|{F}GFAG FDCA,|DA,FD FAA/A/A|{F}GFAF cF ^cF|
dD[FA]D FAA/A/A|{F}GFAG FDCA,|B,A,CA, DA,B,A,|1 CA,^CA, DA,B,A,:|2 CA,^CA, DGFG||
|:DAdA FADF|^CA,CF ^cFCF|CEcG ECC/C/C|=B,D=BG DB,B,/B,/B,|
B,FB,C {^C}DB,DE|FDFG AFAc|ABB/B/A cc/c/cA|cA^cA dGFG:|

